X: 11
T: POLKA PIQUEE DE PLOEUC
M: 4/4
L: 1/8
Q:1/4=120
K:G
|DGBG DGFE|EFAF EFD3/2 z/2 |DGBG DGFE|EFAF EFG3/2 z/2 |
B3/2 z/2 G3/2 z/2 DGFE|A3/2 z/2 F3/2 z/2 EFD3/2 z/2 |B3/2 z/2 G3/2 z/2 D
GFE|A3/2 z/2 F3/2 z/2 EFG3/2|
